trunk/public/assets/images/icons/black/file-office.svg

<svg width="16" height="16" xmlns="http://www.w3.org/2000/svg" viewBox="0 0 16 16" shape-rendering="geometricPrecision"><path d="M10.868 4.2c.26-.306.227-.766-.08-1.026-.303-.264-.76-.23-1.026.072l-.382.442 1.105.956.383-.444zM6.19 8.498l.752-.296-.563-.485-.19.78zm.355-1.526l1.104.956 2.572-2.98-1.104-.955-2.573 2.98zM4.985 3.037H7.22v.745H4.986zM4.985 4.528H7.22v.745H4.986zM10.055 14.302l2.54-2.338h-2.54"/><path d="M2.595 1.016v13.97h6.008v-4.47h4.802v-9.5H2.595zm9.44 8.027h-4.79v4.6H3.916V2.32h8.116v6.725z"/></svg>

<?xml version="1.0"?><!DOCTYPE svg PUBLIC "-//W3C//DTD SVG 1.1//EN" "http://www.w3.org/Graphics/SVG/1.1/DTD/svg11.dtd"><svg width="16px" height="16px" xmlns="http://www.w3.org/2000/svg" viewBox="0 0 16 16" shape-rendering="geometricPrecision" fill="#000"><g><path d="M10.868,4.2c0.26-0.306,0.227-0.766-0.079-1.026c-0.304-0.264-0.761-0.23-1.027,0.072l0,0L9.38,3.688 l1.105,0.956L10.868,4.2L10.868,4.2z M6.191,8.498l0.751-0.296L6.379,7.717L6.191,8.498z M6.545,6.972l1.104,0.956l2.573-2.981 L9.118,3.993L6.545,6.972z"/><rect x="4.985" y="3.037" width="2.236" height="0.745"/><rect x="4.985" y="4.528" width="2.236" height="0.745"/><g><polygon points="10.055,14.302 12.595,11.964 10.055,11.964"/><path d="M2.595,1.016v13.969h6.008v-4.468h4.802V1.016H2.595z M12.034,9.043h-4.79v4.601H3.917V2.318h8.116V9.043z"/></g></g></svg>
